source/img/icon-mail.svg

<svg enable-background="new 0 0 16 16" height="16" viewBox="0 0 16 16" width="16" xmlns="http://www.w3.org/2000/svg"><path d="m8 10c-.266 0-.5-.094-1-.336l-7-3.664v7c0 .55.45 1 1 1h14c.55 0 1-.45 1-1v-7l-7 3.664c-.5.242-.734.336-1 .336zm7-8h-14c-.55 0-1 .45-1 1v.758l8 4.205 8-4.205v-.758c0-.55-.45-1-1-1z"/></svg>

<svg version="1.1" id="Layer_1" xmlns="http://www.w3.org/2000/svg" xmlns:xlink="http://www.w3.org/1999/xlink" x="0px" y="0px" width="16px" height="16px" viewBox="0 0 16 16" enable-background="new 0 0 16 16" xml:space="preserve">
  <path d="M8,10c-0.266,0-0.5-0.094-1-0.336L0,6v7c0,0.55,0.45,1,1,1h14c0.55,0,1-0.45,1-1V6L9,9.664C8.5,9.906,8.266,10,8,10z M15,2 H1C0.45,2,0,2.45,0,3v0.758l8,4.205l8-4.205V3C16,2.45,15.55,2,15,2z"/>
</svg>
